(Exported by FreeCAD)
(Post Processor: grbl_post)
(Output Time:2019-11-01 13:30:29.036365)
(begin preamble)
G17 G90
G21
(begin operation: 4mm)
(Path: 4mm)
(4mm)
(begin toolchange)
; M6 T1
M3 S0.0000
(finish operation: 4mm)
(begin operation: TagDressup002)
(Path: TagDressup002)
G0 Z25.0000
G0 X237.3732 Y97.3736 Z25.0000
G0 X237.3732 Y97.3736 Z23.0000
G1 X237.3732 Y97.3736 Z-3.3000 F400.00
G2 X242.4984 Y85.0892 Z-3.3000 I-12.3755 J-12.3746 F400.00
G1 X242.5000 Y15.0000 Z-3.3000 F400.00
G2 X225.0892 Y-2.4984 Z-3.3000 I-17.5010 J0.0023 F400.00
G1 X15.0000 Y-2.5000 Z-3.3000 F400.00
G2 X-2.4984 Y14.9108 Z-3.3000 I0.0023 J17.5010 F400.00
G1 X-2.5000 Y85.0000 Z-3.3000 F400.00
G2 X14.9108 Y102.4984 Z-3.3000 I17.5010 J-0.0023 F400.00
G1 X225.0000 Y102.5000 Z-3.3000 F400.00
G2 X237.3732 Y97.3736 Z-3.3000 I-0.0023 J-17.5010 F400.00
G1 X237.3732 Y97.3736 Z-6.6000 F400.00
G2 X242.4984 Y85.0892 Z-6.6000 I-12.3755 J-12.3746 F400.00
G1 X242.5000 Y15.0000 Z-6.6000 F400.00
G2 X225.0892 Y-2.4984 Z-6.6000 I-17.5010 J0.0023 F400.00
G1 X15.0000 Y-2.5000 Z-6.6000 F400.00
G2 X-2.4984 Y14.9108 Z-6.6000 I0.0023 J17.5010 F400.00
G1 X-2.5000 Y85.0000 Z-6.6000 F400.00
G2 X14.9108 Y102.4984 Z-6.6000 I17.5010 J-0.0023 F400.00
G1 X225.0000 Y102.5000 Z-6.6000 F400.00
G2 X237.3732 Y97.3736 Z-6.6000 I-0.0023 J-17.5010 F400.00
G1 X237.3732 Y97.3736 Z-9.5000 F400.00
G2 X242.4984 Y85.0892 Z-9.5000 I-12.3755 J-12.3746 F400.00
G1 X242.5000 Y15.0000 Z-9.5000 F400.00
G2 X225.0892 Y-2.4984 Z-9.5000 I-17.5010 J0.0023 F400.00
G1 X185.5519 Y-2.4987 Z-9.5000 F400.00
G1 X183.5519 Y-2.4987 Z-7.5000 F400.00
G1 X161.5819 Y-2.4989 Z-7.5000 F400.00
G1 X159.5819 Y-2.4989 Z-9.5000 F400.00
G1 X80.5073 Y-2.4995 Z-9.5000 F400.00
G1 X78.5073 Y-2.4995 Z-7.5000 F400.00
G1 X56.5373 Y-2.4997 Z-7.5000 F400.00
G1 X54.5373 Y-2.4997 Z-9.5000 F400.00
G1 X15.0000 Y-2.5000 Z-9.5000 F400.00
G2 X-2.4984 Y14.9108 Z-9.5000 I0.0023 J17.5010 F400.00
G1 X-2.5000 Y85.0000 Z-9.5000 F400.00
G2 X14.9108 Y102.4984 Z-9.5000 I17.5010 J-0.0023 F400.00
G1 X54.4481 Y102.4987 Z-9.5000 F400.00
G1 X56.4481 Y102.4987 Z-7.5000 F400.00
G1 X78.4181 Y102.4989 Z-7.5000 F400.00
G1 X80.4181 Y102.4989 Z-9.5000 F400.00
G1 X159.4927 Y102.4995 Z-9.5000 F400.00
G1 X161.4927 Y102.4995 Z-7.5000 F400.00
G1 X183.4627 Y102.4997 Z-7.5000 F400.00
G1 X185.4627 Y102.4997 Z-9.5000 F400.00
G1 X225.0000 Y102.5000 Z-9.5000 F400.00
G2 X237.3732 Y97.3736 Z-9.5000 I-0.0023 J-17.5010 F400.00
G0 X237.3732 Y97.3736 Z25.0000
(finish operation: TagDressup002)
(begin postamble)
M5
G17 G90
; M2
