(Exported by FreeCAD)
(Post Processor: grbl_post)
(Output Time:2019-10-25 14:41:18.562657)
(begin preamble)
G17 G90
G21
(begin operation: T1: 4mm)
(Path: T1: 4mm)
(T1: 4mm)
(begin toolchange)
; M6 T1
M3 S0.0000
(finish operation: T1: 4mm)
(begin operation: TagDressup001)
(Path: TagDressup001)
G0 Z25.0000
G0 X237.0199 Y122.0202 Z25.0000
G0 X237.0199 Y122.0202 Z23.0000
G1 X237.0199 Y122.0202 Z-3.0000 F400.00
G2 X241.9987 Y110.0714 Z-3.0000 I-12.0218 J-12.0210 F400.00
G1 X242.0000 Y40.0000 Z-3.0000 F400.00
G2 X225.0714 Y23.0013 Z-3.0000 I-17.0008 J0.0019 F400.00
G1 X155.0000 Y23.0000 Z-3.0000 F400.00
G2 X153.0000 Y25.0000 Z-3.0000 I-0.0000 J2.0000 F400.00
G1 X153.0000 Y36.2345 Z-3.0000 F400.00
G2 X155.0000 Y38.2345 Z-3.0000 I2.0000 J0.0000 F400.00
G1 X224.9286 Y38.2345 Z-3.0000 F400.00
G3 X226.7655 Y40.0714 Z-3.0000 I0.0568 J1.7802 F400.00
G1 X226.7655 Y109.9286 Z-3.0000 F400.00
G3 X224.9286 Y111.7655 Z-3.0000 I-1.7802 J0.0568 F400.00
G1 X15.0714 Y111.7655 Z-3.0000 F400.00
G3 X13.2345 Y109.9286 Z-3.0000 I-0.0568 J-1.7802 F400.00
G1 X13.2345 Y40.0714 Z-3.0000 F400.00
G3 X15.0714 Y38.2345 Z-3.0000 I1.7802 J-0.0568 F400.00
G1 X85.0000 Y38.2345 Z-3.0000 F400.00
G2 X87.0000 Y36.2345 Z-3.0000 I0.0000 J-2.0000 F400.00
G1 X87.0000 Y25.0000 Z-3.0000 F400.00
G2 X85.0000 Y23.0000 Z-3.0000 I-2.0000 J-0.0000 F400.00
G1 X15.0000 Y23.0000 Z-3.0000 F400.00
G2 X-1.9987 Y39.9286 Z-3.0000 I0.0019 J17.0008 F400.00
G1 X-2.0000 Y110.0000 Z-3.0000 F400.00
G2 X14.9286 Y126.9987 Z-3.0000 I17.0008 J-0.0019 F400.00
G1 X225.0000 Y127.0000 Z-3.0000 F400.00
G2 X237.0199 Y122.0202 Z-3.0000 I-0.0019 J-17.0008 F400.00
G1 X237.0199 Y122.0202 Z-6.0000 F400.00
G2 X241.9987 Y110.0714 Z-6.0000 I-12.0218 J-12.0210 F400.00
G1 X242.0000 Y40.0000 Z-6.0000 F400.00
G2 X225.0714 Y23.0013 Z-6.0000 I-17.0008 J0.0019 F400.00
G1 X155.0000 Y23.0000 Z-6.0000 F400.00
G2 X153.0000 Y25.0000 Z-6.0000 I-0.0000 J2.0000 F400.00
G1 X153.0000 Y36.2345 Z-6.0000 F400.00
G2 X155.0000 Y38.2345 Z-6.0000 I2.0000 J0.0000 F400.00
G1 X224.9286 Y38.2345 Z-6.0000 F400.00
G3 X226.7655 Y40.0714 Z-6.0000 I0.0568 J1.7802 F400.00
G1 X226.7655 Y109.9286 Z-6.0000 F400.00
G3 X224.9286 Y111.7655 Z-6.0000 I-1.7802 J0.0568 F400.00
G1 X15.0714 Y111.7655 Z-6.0000 F400.00
G3 X13.2345 Y109.9286 Z-6.0000 I-0.0568 J-1.7802 F400.00
G1 X13.2345 Y40.0714 Z-6.0000 F400.00
G3 X15.0714 Y38.2345 Z-6.0000 I1.7802 J-0.0568 F400.00
G1 X85.0000 Y38.2345 Z-6.0000 F400.00
G2 X87.0000 Y36.2345 Z-6.0000 I0.0000 J-2.0000 F400.00
G1 X87.0000 Y25.0000 Z-6.0000 F400.00
G2 X85.0000 Y23.0000 Z-6.0000 I-2.0000 J-0.0000 F400.00
G1 X15.0000 Y23.0000 Z-6.0000 F400.00
G2 X-1.9987 Y39.9286 Z-6.0000 I0.0019 J17.0008 F400.00
G1 X-2.0000 Y110.0000 Z-6.0000 F400.00
G2 X14.9286 Y126.9987 Z-6.0000 I17.0008 J-0.0019 F400.00
G1 X225.0000 Y127.0000 Z-6.0000 F400.00
G2 X237.0199 Y122.0202 Z-6.0000 I-0.0019 J-17.0008 F400.00
G1 X237.0199 Y122.0202 Z-9.0000 F400.00
G2 X241.9987 Y110.0714 Z-9.0000 I-12.0218 J-12.0210 F400.00
G1 X242.0000 Y40.0000 Z-9.0000 F400.00
G2 X225.0714 Y23.0013 Z-9.0000 I-17.0008 J0.0019 F400.00
G1 X179.0750 Y23.0004 Z-9.0000 F400.00
G1 X176.5750 Y23.0004 Z-6.5000 F400.00
G1 X162.6250 Y23.0001 Z-6.5000 F400.00
G1 X160.1250 Y23.0001 Z-9.0000 F400.00
G1 X155.0000 Y23.0000 Z-9.0000 F400.00
G2 X153.0000 Y25.0000 Z-9.0000 I-0.0000 J2.0000 F400.00
G1 X153.0000 Y36.2345 Z-9.0000 F400.00
G2 X155.0000 Y38.2345 Z-9.0000 I2.0000 J0.0000 F400.00
G1 X224.9286 Y38.2345 Z-9.0000 F400.00
G3 X226.7655 Y40.0714 Z-9.0000 I0.0568 J1.7802 F400.00
G1 X226.7655 Y69.4650 Z-9.0000 F400.00
G1 X226.7655 Y71.9650 Z-6.5000 F400.00
G1 X226.7655 Y85.9150 Z-6.5000 F400.00
G1 X226.7655 Y88.4150 Z-9.0000 F400.00
G1 X226.7655 Y109.9286 Z-9.0000 F400.00
G3 X224.9286 Y111.7655 Z-9.0000 I-1.7802 J0.0568 F400.00
G1 X193.7150 Y111.7655 Z-9.0000 F400.00
G1 X191.2150 Y111.7655 Z-6.5000 F400.00
G1 X177.2650 Y111.7655 Z-6.5000 F400.00
G1 X174.7650 Y111.7655 Z-9.0000 F400.00
G1 X49.6150 Y111.7655 Z-9.0000 F400.00
G1 X47.1150 Y111.7655 Z-6.5000 F400.00
G1 X33.1650 Y111.7655 Z-6.5000 F400.00
G1 X30.6650 Y111.7655 Z-9.0000 F400.00
G1 X15.0714 Y111.7655 Z-9.0000 F400.00
G3 X13.2345 Y109.9286 Z-9.0000 I-0.0568 J-1.7802 F400.00
G1 X13.2345 Y83.9750 Z-9.0000 F400.00
G1 X13.2345 Y81.4750 Z-6.5000 F400.00
G1 X13.2345 Y67.5250 Z-6.5000 F400.00
G1 X13.2345 Y65.0250 Z-9.0000 F400.00
G1 X13.2345 Y40.0714 Z-9.0000 F400.00
G3 X15.0714 Y38.2345 Z-9.0000 I1.7802 J-0.0568 F400.00
G1 X85.0000 Y38.2345 Z-9.0000 F400.00
G2 X87.0000 Y36.2345 Z-9.0000 I0.0000 J-2.0000 F400.00
G1 X87.0000 Y25.0000 Z-9.0000 F400.00
G2 X85.0000 Y23.0000 Z-9.0000 I-2.0000 J-0.0000 F400.00
G1 X80.1150 Y23.0000 Z-9.0000 F400.00
G1 X77.6150 Y23.0000 Z-6.5000 F400.00
G1 X63.6650 Y23.0000 Z-6.5000 F400.00
G1 X61.1650 Y23.0000 Z-9.0000 F400.00
G1 X15.0000 Y23.0000 Z-9.0000 F400.00
G2 X-1.9987 Y39.9286 Z-9.0000 I0.0019 J17.0008 F400.00
G1 X-2.0000 Y110.0000 Z-9.0000 F400.00
G2 X14.9286 Y126.9987 Z-9.0000 I17.0008 J-0.0019 F400.00
G1 X225.0000 Y127.0000 Z-9.0000 F400.00
G2 X237.0199 Y122.0202 Z-9.0000 I-0.0019 J-17.0008 F400.00
G0 X237.0199 Y122.0202 Z25.0000
G0 X492.0199 Y122.0202 Z25.0000
G0 X492.0199 Y122.0202 Z23.0000
G1 X492.0199 Y122.0202 Z-3.0000 F400.00
G2 X496.9987 Y110.0714 Z-3.0000 I-12.0218 J-12.0210 F400.00
G1 X497.0000 Y40.0000 Z-3.0000 F400.00
G2 X480.0714 Y23.0013 Z-3.0000 I-17.0008 J0.0019 F400.00
G1 X410.0000 Y23.0000 Z-3.0000 F400.00
G2 X408.0000 Y25.0000 Z-3.0000 I-0.0000 J2.0000 F400.00
G1 X408.0000 Y36.2345 Z-3.0000 F400.00
G2 X410.0000 Y38.2345 Z-3.0000 I2.0000 J0.0000 F400.00
G1 X479.9286 Y38.2345 Z-3.0000 F400.00
G3 X481.7655 Y40.0714 Z-3.0000 I0.0568 J1.7802 F400.00
G1 X481.7655 Y109.9286 Z-3.0000 F400.00
G3 X479.9286 Y111.7655 Z-3.0000 I-1.7802 J0.0568 F400.00
G1 X270.0714 Y111.7655 Z-3.0000 F400.00
G3 X268.2345 Y109.9286 Z-3.0000 I-0.0568 J-1.7802 F400.00
G1 X268.2345 Y40.0714 Z-3.0000 F400.00
G3 X270.0714 Y38.2345 Z-3.0000 I1.7802 J-0.0568 F400.00
G1 X340.0000 Y38.2345 Z-3.0000 F400.00
G2 X342.0000 Y36.2345 Z-3.0000 I0.0000 J-2.0000 F400.00
G1 X342.0000 Y25.0000 Z-3.0000 F400.00
G2 X340.0000 Y23.0000 Z-3.0000 I-2.0000 J-0.0000 F400.00
G1 X270.0000 Y23.0000 Z-3.0000 F400.00
G2 X253.0013 Y39.9286 Z-3.0000 I0.0019 J17.0008 F400.00
G1 X253.0000 Y110.0000 Z-3.0000 F400.00
G2 X269.9286 Y126.9987 Z-3.0000 I17.0008 J-0.0019 F400.00
G1 X480.0000 Y127.0000 Z-3.0000 F400.00
G2 X492.0199 Y122.0202 Z-3.0000 I-0.0019 J-17.0008 F400.00
G1 X492.0199 Y122.0202 Z-6.0000 F400.00
G2 X496.9987 Y110.0714 Z-6.0000 I-12.0218 J-12.0210 F400.00
G1 X497.0000 Y40.0000 Z-6.0000 F400.00
G2 X480.0714 Y23.0013 Z-6.0000 I-17.0008 J0.0019 F400.00
G1 X410.0000 Y23.0000 Z-6.0000 F400.00
G2 X408.0000 Y25.0000 Z-6.0000 I-0.0000 J2.0000 F400.00
G1 X408.0000 Y36.2345 Z-6.0000 F400.00
G2 X410.0000 Y38.2345 Z-6.0000 I2.0000 J0.0000 F400.00
G1 X479.9286 Y38.2345 Z-6.0000 F400.00
G3 X481.7655 Y40.0714 Z-6.0000 I0.0568 J1.7802 F400.00
G1 X481.7655 Y109.9286 Z-6.0000 F400.00
G3 X479.9286 Y111.7655 Z-6.0000 I-1.7802 J0.0568 F400.00
G1 X270.0714 Y111.7655 Z-6.0000 F400.00
G3 X268.2345 Y109.9286 Z-6.0000 I-0.0568 J-1.7802 F400.00
G1 X268.2345 Y40.0714 Z-6.0000 F400.00
G3 X270.0714 Y38.2345 Z-6.0000 I1.7802 J-0.0568 F400.00
G1 X340.0000 Y38.2345 Z-6.0000 F400.00
G2 X342.0000 Y36.2345 Z-6.0000 I0.0000 J-2.0000 F400.00
G1 X342.0000 Y25.0000 Z-6.0000 F400.00
G2 X340.0000 Y23.0000 Z-6.0000 I-2.0000 J-0.0000 F400.00
G1 X270.0000 Y23.0000 Z-6.0000 F400.00
G2 X253.0013 Y39.9286 Z-6.0000 I0.0019 J17.0008 F400.00
G1 X253.0000 Y110.0000 Z-6.0000 F400.00
G2 X269.9286 Y126.9987 Z-6.0000 I17.0008 J-0.0019 F400.00
G1 X480.0000 Y127.0000 Z-6.0000 F400.00
G2 X492.0199 Y122.0202 Z-6.0000 I-0.0019 J-17.0008 F400.00
G1 X492.0199 Y122.0202 Z-9.0000 F400.00
G2 X496.9987 Y110.0714 Z-9.0000 I-12.0218 J-12.0210 F400.00
G1 X497.0000 Y40.0000 Z-9.0000 F400.00
G2 X480.0714 Y23.0013 Z-9.0000 I-17.0008 J0.0019 F400.00
G1 X440.9650 Y23.0006 Z-9.0000 F400.00
G1 X438.4650 Y23.0005 Z-6.5000 F400.00
G1 X424.5150 Y23.0003 Z-6.5000 F400.00
G1 X422.0150 Y23.0002 Z-9.0000 F400.00
G1 X410.0000 Y23.0000 Z-9.0000 F400.00
G2 X408.0000 Y25.0000 Z-9.0000 I-0.0000 J2.0000 F400.00
G1 X408.0000 Y36.2345 Z-9.0000 F400.00
G2 X410.0000 Y38.2345 Z-9.0000 I2.0000 J0.0000 F400.00
G1 X479.9286 Y38.2345 Z-9.0000 F400.00
G3 X481.7655 Y40.0714 Z-9.0000 I0.0568 J1.7802 F400.00
G1 X481.7655 Y69.0450 Z-9.0000 F400.00
G1 X481.7655 Y71.5450 Z-6.5000 F400.00
G1 X481.7655 Y85.4950 Z-6.5000 F400.00
G1 X481.7655 Y87.9950 Z-9.0000 F400.00
G1 X481.7655 Y109.9286 Z-9.0000 F400.00
G3 X479.9286 Y111.7655 Z-9.0000 I-1.7802 J0.0568 F400.00
G1 X439.5550 Y111.7655 Z-9.0000 F400.00
G1 X437.0550 Y111.7655 Z-6.5000 F400.00
G1 X423.1050 Y111.7655 Z-6.5000 F400.00
G1 X420.6050 Y111.7655 Z-9.0000 F400.00
G1 X315.2250 Y111.7655 Z-9.0000 F400.00
G1 X312.7250 Y111.7655 Z-6.5000 F400.00
G1 X298.7750 Y111.7655 Z-6.5000 F400.00
G1 X296.2750 Y111.7655 Z-9.0000 F400.00
G1 X270.0714 Y111.7655 Z-9.0000 F400.00
G3 X268.2345 Y109.9286 Z-9.0000 I-0.0568 J-1.7802 F400.00
G1 X268.2345 Y80.1850 Z-9.0000 F400.00
G1 X268.2345 Y77.6850 Z-6.5000 F400.00
G1 X268.2345 Y63.7350 Z-6.5000 F400.00
G1 X268.2345 Y61.2350 Z-9.0000 F400.00
G1 X268.2345 Y40.0714 Z-9.0000 F400.00
G3 X270.0714 Y38.2345 Z-9.0000 I1.7802 J-0.0568 F400.00
G1 X340.0000 Y38.2345 Z-9.0000 F400.00
G2 X342.0000 Y36.2345 Z-9.0000 I0.0000 J-2.0000 F400.00
G1 X342.0000 Y25.0000 Z-9.0000 F400.00
G2 X340.0000 Y23.0000 Z-9.0000 I-2.0000 J-0.0000 F400.00
G1 X324.7150 Y23.0000 Z-9.0000 F400.00
G1 X322.2150 Y23.0000 Z-6.5000 F400.00
G1 X308.2650 Y23.0000 Z-6.5000 F400.00
G1 X305.7650 Y23.0000 Z-9.0000 F400.00
G1 X270.0000 Y23.0000 Z-9.0000 F400.00
G2 X253.0013 Y39.9286 Z-9.0000 I0.0019 J17.0008 F400.00
G1 X253.0000 Y110.0000 Z-9.0000 F400.00
G2 X269.9286 Y126.9987 Z-9.0000 I17.0008 J-0.0019 F400.00
G1 X480.0000 Y127.0000 Z-9.0000 F400.00
G2 X492.0199 Y122.0202 Z-9.0000 I-0.0019 J-17.0008 F400.00
G0 X492.0199 Y122.0202 Z25.0000
G0 X364.0199 Y97.0202 Z25.0000
G0 X364.0199 Y97.0202 Z23.0000
G1 X364.0199 Y97.0202 Z-3.0000 F400.00
G2 X368.9987 Y85.0714 Z-3.0000 I-12.0218 J-12.0210 F400.00
G1 X369.0000 Y15.0000 Z-3.0000 F400.00
G2 X352.0714 Y-1.9987 Z-3.0000 I-17.0008 J0.0019 F400.00
G1 X142.0000 Y-2.0000 Z-3.0000 F400.00
G2 X125.0013 Y14.9286 Z-3.0000 I0.0019 J17.0008 F400.00
G1 X125.0000 Y85.0000 Z-3.0000 F400.00
G2 X141.9286 Y101.9987 Z-3.0000 I17.0008 J-0.0019 F400.00
G1 X212.0000 Y102.0000 Z-3.0000 F400.00
G2 X214.0000 Y100.0000 Z-3.0000 I0.0000 J-2.0000 F400.00
G1 X214.0000 Y88.7655 Z-3.0000 F400.00
G2 X212.0000 Y86.7655 Z-3.0000 I-2.0000 J-0.0000 F400.00
G1 X142.0714 Y86.7655 Z-3.0000 F400.00
G3 X140.2345 Y84.9286 Z-3.0000 I-0.0568 J-1.7802 F400.00
G1 X140.2345 Y15.0714 Z-3.0000 F400.00
G3 X142.0714 Y13.2345 Z-3.0000 I1.7802 J-0.0568 F400.00
G1 X351.9286 Y13.2345 Z-3.0000 F400.00
G3 X353.7655 Y15.0714 Z-3.0000 I0.0568 J1.7802 F400.00
G1 X353.7655 Y84.9286 Z-3.0000 F400.00
G3 X351.9286 Y86.7655 Z-3.0000 I-1.7802 J0.0568 F400.00
G1 X282.0000 Y86.7655 Z-3.0000 F400.00
G2 X280.0000 Y88.7655 Z-3.0000 I-0.0000 J2.0000 F400.00
G1 X280.0000 Y100.0000 Z-3.0000 F400.00
G2 X282.0000 Y102.0000 Z-3.0000 I2.0000 J0.0000 F400.00
G1 X352.0000 Y102.0000 Z-3.0000 F400.00
G2 X364.0199 Y97.0202 Z-3.0000 I-0.0019 J-17.0008 F400.00
G1 X364.0199 Y97.0202 Z-6.0000 F400.00
G2 X368.9987 Y85.0714 Z-6.0000 I-12.0218 J-12.0210 F400.00
G1 X369.0000 Y15.0000 Z-6.0000 F400.00
G2 X352.0714 Y-1.9987 Z-6.0000 I-17.0008 J0.0019 F400.00
G1 X142.0000 Y-2.0000 Z-6.0000 F400.00
G2 X125.0013 Y14.9286 Z-6.0000 I0.0019 J17.0008 F400.00
G1 X125.0000 Y85.0000 Z-6.0000 F400.00
G2 X141.9286 Y101.9987 Z-6.0000 I17.0008 J-0.0019 F400.00
G1 X212.0000 Y102.0000 Z-6.0000 F400.00
G2 X214.0000 Y100.0000 Z-6.0000 I0.0000 J-2.0000 F400.00
G1 X214.0000 Y88.7655 Z-6.0000 F400.00
G2 X212.0000 Y86.7655 Z-6.0000 I-2.0000 J-0.0000 F400.00
G1 X142.0714 Y86.7655 Z-6.0000 F400.00
G3 X140.2345 Y84.9286 Z-6.0000 I-0.0568 J-1.7802 F400.00
G1 X140.2345 Y15.0714 Z-6.0000 F400.00
G3 X142.0714 Y13.2345 Z-6.0000 I1.7802 J-0.0568 F400.00
G1 X351.9286 Y13.2345 Z-6.0000 F400.00
G3 X353.7655 Y15.0714 Z-6.0000 I0.0568 J1.7802 F400.00
G1 X353.7655 Y84.9286 Z-6.0000 F400.00
G3 X351.9286 Y86.7655 Z-6.0000 I-1.7802 J0.0568 F400.00
G1 X282.0000 Y86.7655 Z-6.0000 F400.00
G2 X280.0000 Y88.7655 Z-6.0000 I-0.0000 J2.0000 F400.00
G1 X280.0000 Y100.0000 Z-6.0000 F400.00
G2 X282.0000 Y102.0000 Z-6.0000 I2.0000 J0.0000 F400.00
G1 X352.0000 Y102.0000 Z-6.0000 F400.00
G2 X364.0199 Y97.0202 Z-6.0000 I-0.0019 J-17.0008 F400.00
G1 X364.0199 Y97.0202 Z-9.0000 F400.00
G2 X368.9987 Y85.0714 Z-9.0000 I-12.0218 J-12.0210 F400.00
G1 X369.0000 Y15.0000 Z-9.0000 F400.00
G2 X352.0714 Y-1.9987 Z-9.0000 I-17.0008 J0.0019 F400.00
G1 X142.0000 Y-2.0000 Z-9.0000 F400.00
G2 X125.0013 Y14.9286 Z-9.0000 I0.0019 J17.0008 F400.00
G1 X125.0000 Y85.0000 Z-9.0000 F400.00
G2 X141.9286 Y101.9987 Z-9.0000 I17.0008 J-0.0019 F400.00
G1 X212.0000 Y102.0000 Z-9.0000 F400.00
G2 X214.0000 Y100.0000 Z-9.0000 I0.0000 J-2.0000 F400.00
G1 X214.0000 Y88.7655 Z-9.0000 F400.00
G2 X212.0000 Y86.7655 Z-9.0000 I-2.0000 J-0.0000 F400.00
G1 X186.3250 Y86.7655 Z-9.0000 F400.00
G1 X183.8250 Y86.7655 Z-6.5000 F400.00
G1 X169.8750 Y86.7655 Z-6.5000 F400.00
G1 X167.3750 Y86.7655 Z-9.0000 F400.00
G1 X142.0714 Y86.7655 Z-9.0000 F400.00
G3 X140.2345 Y84.9286 Z-9.0000 I-0.0568 J-1.7802 F400.00
G1 X140.2345 Y62.7150 Z-9.0000 F400.00
G1 X140.2345 Y60.2150 Z-6.5000 F400.00
G1 X140.2345 Y46.2650 Z-6.5000 F400.00
G1 X140.2345 Y43.7650 Z-9.0000 F400.00
G1 X140.2345 Y15.0714 Z-9.0000 F400.00
G3 X142.0714 Y13.2345 Z-9.0000 I1.7802 J-0.0568 F400.00
G1 X177.1050 Y13.2345 Z-9.0000 F400.00
G1 X179.6050 Y13.2345 Z-6.5000 F400.00
G1 X193.5550 Y13.2345 Z-6.5000 F400.00
G1 X196.0550 Y13.2345 Z-9.0000 F400.00
G1 X283.2150 Y13.2345 Z-9.0000 F400.00
G1 X285.7150 Y13.2345 Z-6.5000 F400.00
G1 X299.6650 Y13.2345 Z-6.5000 F400.00
G1 X302.1650 Y13.2345 Z-9.0000 F400.00
G1 X351.9286 Y13.2345 Z-9.0000 F400.00
G3 X353.7655 Y15.0714 Z-9.0000 I0.0568 J1.7802 F400.00
G1 X353.7655 Y45.7250 Z-9.0000 F400.00
G1 X353.7655 Y48.2250 Z-6.5000 F400.00
G1 X353.7655 Y62.1750 Z-6.5000 F400.00
G1 X353.7655 Y64.6750 Z-9.0000 F400.00
G1 X353.7655 Y84.9286 Z-9.0000 F400.00
G3 X351.9286 Y86.7655 Z-9.0000 I-1.7802 J0.0568 F400.00
G1 X326.0150 Y86.7655 Z-9.0000 F400.00
G1 X323.5150 Y86.7655 Z-6.5000 F400.00
G1 X309.5650 Y86.7655 Z-6.5000 F400.00
G1 X307.0650 Y86.7655 Z-9.0000 F400.00
G1 X282.0000 Y86.7655 Z-9.0000 F400.00
G2 X280.0000 Y88.7655 Z-9.0000 I-0.0000 J2.0000 F400.00
G1 X280.0000 Y100.0000 Z-9.0000 F400.00
G2 X282.0000 Y102.0000 Z-9.0000 I2.0000 J0.0000 F400.00
G1 X352.0000 Y102.0000 Z-9.0000 F400.00
G2 X364.0199 Y97.0202 Z-9.0000 I-0.0019 J-17.0008 F400.00
G0 X364.0199 Y97.0202 Z25.0000
(finish operation: TagDressup001)
(begin postamble)
M5
G17 G90
; M2
